X: 19382
T: Jack's The Lad
R: hornpipe
M: 4/4
K: Gmajor
gf|g2G2 G2dc|Bdgf gbag|a2A2 A2AG|FAd2 d2ef|
gfed edcB|cBAG GFED|EGFA GBAc|B2G2G2:|
|:dc|Bdgd Bdgd|e2c2 c2ed|^ceae ceae|f2d2 d2ef|
gfed edcB|cBAG GFED|EGFA GBAc|B2G2G2:|

